X:1
T:Title
%%score { ( 1 3 ) | ( 2 4 ) }
L:1/8
Q:1/4=144
M:2/2
K:G
V:1 treble nm="Grand Piano"
V:3 treble 
V:2 treble 
V:4 treble 
V:1
 B6 B2 | B2 B2 A2 G2 | G2 F6 | [Dd]6 [DB]2 | [EA]2 [EG]2 [^CF]2 [CG]2 | A8 | G6 B2 | d2 ^c2 e2 B2 | %8
w: H.~J.~E.~Holmes *||||||||
 [=Fd]2 [Ec]6 | B4 z4[Q:1/4=142][Q:1/4=140] | %10
w: ||
 [^CEB]2 [CEA]2 [=CE]2 [CDF]2[Q:1/4=138][Q:1/4=136][Q:1/4=133][Q:1/4=131][Q:1/4=129][Q:1/4=127][Q:1/4=125][Q:1/4=123][Q:1/4=121][Q:1/4=119] | %11
w: |
 [B,DG]8[Q:1/4=116][Q:1/4=114][Q:1/4=112][Q:1/4=110] |] %12
w: |
V:2
 [G,DG]6 [G,DG]2 | [G,DG]2 [G,DG]2 [G,CF]2[K:bass] [G,B,D]2 | [D,B,D]2 [D,A,D]6 | %3
 [B,,G,]6 [B,,G,]2 | [^C,E,]2 [C,A,]2 [A,,A,]2 [A,,A,]2 | [D,D]8 | [G,B,D]6 [G,DG]2 | %7
 [G,B,G]2 [G,_B,G]2 [G,=B,=F]2 [G,DF]2 | [C,B,]2 [C,C]6 | D,4- [D,E]2 D,2 | A,,2 A,,2 D,2 D,2 | %11
 G,,8 |] %12
V:3
 x8 | x8 | x8 | x8 | x8 | z4 C4 | x8 | x8 | x8 | G2- [B,G-]2 [Gc]2 [DGB]2 | x8 | x8 |] %12
V:4
 x8 | x6[K:bass] x2 | x8 | x8 | x8 | F,4 z4 | x8 | x8 | x8 | .G,4 z4 | x8 | x8 |] %12

